src/svg/logo.svg

<?xml version="1.0" encoding="UTF-8" standalone="no"?>
<svg width="104px" height="93px" viewBox="0 0 104 93" version="1.1" xmlns="http://www.w3.org/2000/svg" xmlns:xlink="http://www.w3.org/1999/xlink" xmlns:sketch="http://www.bohemiancoding.com/sketch/ns">
    <!-- Generator: Sketch 3.5.1 (25234) - http://www.bohemiancoding.com/sketch -->
    <title>logo</title>
    <desc>Created with Sketch.</desc>
    <defs></defs>
    <g id="Page-2" stroke="none" stroke-width="1" fill="none" fill-rule="evenodd" sketch:type="MSPage">
        <g id="Artboard-1" sketch:type="MSArtboardGroup" transform="translate(-918.000000, -524.000000)">
            <g id="logo" sketch:type="MSLayerGroup" transform="translate(920.000000, 526.000000)">
                <path d="M-1.43393664e-14,78.7561601 L9.57845191,89.322865 L90.0070402,89.322865 L99.5854921,78.7561601 L99.5854921,10.5667049 L90.0070402,4.8316906e-13 L9.57845191,4.40536496e-13 L-1.43838942e-14,10.5667049 L-1.43393664e-14,78.7561601 Z" id="Path" stroke="#4A4A4A" stroke-width="3" fill="#4A4A4A" sketch:type="MSShapeGroup"></path>
                <path d="M32.8707827,17 L22,17 L22,70.9738163 L33.7830162,70.9738163 L33.7830162,42.2384606 L32.9468022,37.1451568 L33.25088,37.1451568 L35.227386,42.1624411 L45.7940909,59.4188585 L53.8521536,59.4188585 L64.4188585,42.1624411 L66.3953644,37.1451568 L66.6994422,37.1451568 L65.8632282,42.2384606 L65.8632282,70.9738163 L77.6462444,70.9738163 L77.6462444,17 L66.7754617,17 L50.8873946,42.9226357 L49.9751611,45.8113752 L49.6710833,45.8113752 L48.7588498,42.9226357 L32.8707827,17 Z" id="MASON" fill="#FFFFFF" sketch:type="MSShapeGroup"></path>
            </g>
        </g>
    </g>
</svg>

<svg viewBox="0 0 100 90" xmlns="http://www.w3.org/2000/svg" xmlns:xlink="http://www.w3.org/1999/xlink">
    <defs>
        <path d="m0 78.76l9.578 10.567h80.43l9.578-10.567v-68.19l-9.578-10.567h-80.43l-9.578 10.567v68.19m32.871-61.76h-10.871v53.974h11.783v-28.735l-.836-5.093h.304l1.977 5.02 10.567 17.256h8.06l10.567-17.256 1.977-5.02h.304l-.836 5.093v28.735h11.783v-53.974h-10.871l-15.888 25.923-.912 2.889h-.304l-.912-2.889-15.888-25.923h-.004" id="0" style="fill:#fff"/>
    </defs>
    <g style="fill:none;fill-rule:evenodd">
        <use xlink:href="#0" id="1"/>
    </g>
</svg>
